src/22/actions/kdenlive-show-markers.svg

<svg xmlns="http://www.w3.org/2000/svg" viewBox="0 0 22 22">
  <defs id="defs3051">
    <style type="text/css" id="current-color-scheme">
      .ColorScheme-Text {
        color:#5d656b;
      }
      </style>
  </defs>
 <path 
     style="fill:currentColor;fill-opacity:1;stroke:none" 
     d="M 3 3 L 3 19 L 4 19 L 4 12 L 9 11 L 10 10.800781 L 10 12.800781 L 19 11 L 17 10 L 19 9 L 10 6.5996094 L 10 4.5996094 L 9 4.3339844 L 4 3 L 3 3 z "
     class="ColorScheme-Text"
     />
</svg>

<svg xmlns="http://www.w3.org/2000/svg" viewBox="0 0 22 22"><path d="M3 3v16h1v-7l5-1 1-.2v2l9-1.8-2-1 2-1-9-2.4v-2l-1-.266L4 3H3z" fill="currentColor" color="#5d656b"/></svg>
